X: 12673
T: Fasten The Leg In Her
R: jig
M: 6/8
K: Gmajor
dc|:BGG B/c/BA|GBd gdB|A3 B2A|GBd dBA|
BGG BBA|GBd gab|a3 age|1 fdd d2c:|2 fdd def||
|:gg2 ef2|ege edB|A3 AGA|GBd dBA|
gg2 ef2|efg fdB|Aaa a2g|1 fdd def:|2 fdd d2c||

